!!!COM: Michael Altenburg
!!!OTL: Ein feste Burg ist unser Gott
!!!system-decoration: ({(s1,s2,s3)}[(s4,s5,s6)])
**kern	**kern	**kern	**kern	**kern	**kern	**kern	**kern	**kern	**kern	**kern	**kern	**kern	**kern	**kern	**kern	**kern	**kern	**text	**text	**kern	**kern	**kern	**kern	**kern	**kern	**kern	**kern	**kern	**kern	**kern	**kern	**kern	**kern	**kern	**kern	**kern	**kern
*part6	*part6	*part6	*part6	*part6	*part6	*part5	*part5	*part5	*part5	*part5	*part5	*part4	*part4	*part4	*part4	*part4	*part4	*part4	*part4	*part3	*part3	*part3	*part3	*part3	*part3	*part2	*part2	*part2	*part2	*part2	*part2	*part1	*part1	*part1	*part1	*part1	*part1
*staff36	*staff35	*staff34	*staff33	*staff32	*staff31	*staff30	*staff29	*staff28	*staff27	*staff26	*staff25	*staff24	*staff23	*staff22	*staff21	*staff20	*staff19	*staff19	*staff19	*staff18	*staff17	*staff16	*staff15	*staff14	*staff13	*staff12	*staff11	*staff10	*staff9	*staff8	*staff7	*staff6	*staff5	*staff4	*staff3	*staff2	*staff1
*I'Pos 3	*	*	*	*	*	*I'Pos 2	*	*	*	*	*	*I'P 1 Tr 4	*	*	*	*	*	*	*	*I'Tr 3	*	*	*	*	*	*I'Tr 2	*	*	*	*	*	*I'Tr 1	*	*	*	*	*
*I"Posaune 3	*	*	*	*	*	*I"Posaune 2	*	*	*	*	*	*I"Pos1 Tro 4	*	*	*	*	*	*	*	*I"Trompete 3	*	*	*	*	*	*I"Trompete 2	*	*	*	*	*	*I"Trompete 1	*	*	*	*	*
*clefF4	*clefF4	*clefGv2	*	*	*clefG2	*clefG2	*clefG2
*M4/4	*M4/4	*M4/4	*	*	*M4/4	*M4/4	*M4/4
1C	1c	1r	.	.	2r	8eL	8ccL
.	.	.	.	.	.	8fJ	8ddJ
.	.	.	.	.	.	4g	4ee
.	.	.	.	.	8ccL	(<8gL	8eeL
.	.	.	.	.	8ddJ	8f)	8ffJ
.	.	.	.	.	4ee	8e	4gg
.	.	.	.	.	.	8dJ	.
=2	=2	=2	=2	=2	=2	=2	=2
2C	4.G	1r	.	.	8eeL	2c	(>8ccL
.	.	.	.	.	8ffJ	.	8dd)
.	.	.	.	.	4gg	.	8ee
.	8A	.	.	.	.	.	8ffJ
2BB	8BL	.	.	.	8gL	4.g	4gg
.	8cJ	.	.	.	8aJ	.	.
.	4d	.	.	.	4b	.	4g
.	.	.	.	.	.	8d	.
=3	=3	=3	=3	=3	=3	=3	=3
1AA	(>8cL	1r	.	.	8ccL	2.e	8aL
.	8B)	.	.	.	8ddJ	.	8bJ
.	8A	.	.	.	4ee	.	4cc
.	8BJ	.	.	.	.	.	.
.	8cL	.	.	.	8aL	.	(>8ccL
.	8BJ	.	.	.	8bJ	.	8dd)
.	4A	.	.	.	4cc	4a	8ee
.	.	.	.	.	.	.	8ffJ
=4	=4	=4	=4	=4	=4	=4	=4
!	!	!	!	!	!	!	!LO:TX:a:i:t=Michael Altenburg
4GG	8dL	1r	.	.	8bL	2d	2gg
.	8cJ	.	.	.	8ccJ	.	.
4G	2B	.	.	.	4dd	.	.
4E	.	.	.	.	4ee	8gL	4g
.	.	.	.	.	.	8fJ	.
4A	[4c	.	.	.	[4cc	4e	8aL
.	.	.	.	.	.	.	8bJ
!!LO:LB
=5	=5	=5	=5	=5	=5	=5	=5
4F	4c]	2r	.	.	4cc]	8aL	(>8ccL
.	.	.	.	.	.	8gJ	8a)
4D	2d	.	.	.	4ff	4f	8dd
.	.	.	.	.	.	.	8ccJ
4G	.	4r	.	.	4dd	2g	8bL
.	.	.	.	.	.	.	8aJ
4E	[4e	4c	Ein	Er	8ggL	.	4g
.	.	.	.	.	8ffJ	.	.
=6	=6	=6	=6	=6	=6	=6	=6
4C	4e]	2c	fe-	hilft	8eeL	4g	(>8ccL
.	.	.	.	.	8ddJ	.	8dd)
8AAL	4e	.	.	.	4cc	2c	8ee
8BBJ	.	.	.	.	.	.	8ddJ
(>(<8CL	8eL	2c	ste	uns	4.g	.	8eeL
8D))	8dJ	.	.	.	.	.	8ffJ
8E	4c	.	.	.	.	4g	4gg
8FJ	.	.	.	.	8a	.	.
=7	=7	=7	=7	=7	=7	=7	=7
4G	4.B	4.G	Burg	frei	8bL	2.g	(<8gL
.	.	.	.	.	8cc	.	8a)
2GG	.	.	.	.	8dd	.	8b
.	8A	8A	.	.	8ccJ	.	8ccJ
.	8GL	4B	ist	aus	4b	.	4dd
.	8EJ	.	.	.	.	.	.
[4AA	4A	[4c	un	al	8aL	4e	8ccL
.	.	.	.	.	8bJ	.	8ddJ
=8	=8	=8	=8	=8	=8	=8	=8
4AA]	2r	4c]	.	.	4cc	4e	4ee
4BB	.	4B	.	.	4dd	4g	4dd
4C	4r	2A	ser	ler	4ee	4g	4cc
4D	4d	.	.	.	4ff#	4d	4a
!!LO:LB
=9	=9	=9	=9	=9	=9	=9	=9
2GG	2d	1G	Gott,	Not,	2gg	2g	2b
4r	4r	.	.	.	4r	4r	4r
4C	4c	.	.	.	8eeL	4g	8ccL
.	.	.	.	.	8ddJ	.	8ddJ
=10	=10	=10	=10	=10	=10	=10	=10
4AA	4c	2r	.	.	4cc	8cL	4ee
.	.	.	.	.	.	8fJ	.
4FF	4A	.	.	.	4cc	4a	4ff
4r	4r	2c	ein	die	4r	4r	4r
4F	4A	.	.	.	4cc	4a	4ff
=11	=11	=11	=11	=11	=11	=11	=11
4G	4d	2B	gu-	uns	8gL	2g	4dd
.	.	.	.	.	8aJ	.	.
4E	4G	.	.	.	4b	.	4gg
4A	2c	2A	te	fetzt	8ccL	2a	4ee
.	.	.	.	.	8ddJ	.	.
4AA	.	.	.	.	4cc 4ee	.	4ee 4aa
=12	=12	=12	=12	=12	=12	=12	=12
4E	4B	2G	Wehr	hat	8eeL	2e	(>8ggL
.	.	.	.	.	8ffJ	.	8ff)
4C	4c	.	.	.	4gg	.	8ee
.	.	.	.	.	.	.	8ddJ
4AA	4c	4A	und	be-	4r	2a	8ccL
.	.	.	.	.	.	.	8b
8DL	4d	[4F	Waf-	trof-	8fL 8ff	.	8a
8EJ	.	.	.	.	8gJ 8gg	.	8gJ
!!LO:LB
=13	=13	=13	=13	=13	=13	=13	=13
!	!	!	!	!	!	!	!LO:TX:a:i:t=Ein feste Burg ist unser Gott Seite 2
4F	4A	4F]	.	.	4a 4aa	4a	4f
4C	4c	4E	.	.	4g 4gg	8eL	8gL
.	.	.	.	.	.	8fJ	8aJ
2GG	8BL	2D	.	.	4g 4gg	2g	(>8bL
.	8AJ	.	.	.	.	.	8cc)
.	4G	.	.	.	4dd	.	8dd
.	.	.	.	.	.	.	8bJ
=14	=14	=14	=14	=14	=14	=14	=14
2C	2G	[1C	fen.	fen.	2ee	2g	2cc
4C	4c	.	.	.	4ee	4g	4cc
4C	4c	.	.	.	4ee	4g	4cc
=15	=15	=15	=15	=15	=15	=15	=15
1C	1c	1C]	.	.	1ee	1g	1cc
=16:|!	=16:|!	=16:|!	=16:|!	=16:|!	=16:|!	=16:|!	=16:|!
1F	2.c	1r	.	.	4.cc	2.f	(<8aL
.	.	.	.	.	.	.	8g)
.	.	.	.	.	.	.	8a
.	.	.	.	.	8b	.	8bJ
.	.	.	.	.	(<8aL	.	(>8ccL
.	.	.	.	.	8g)	.	8b)
.	4A	.	.	.	8a	4c	8cc
.	.	.	.	.	8bJ	.	8ddJ
=17	=17	=17	=17	=17	=17	=17	=17
2E	2G	1r	.	.	4cc	2g	2ee
.	.	.	.	.	8bL	.	.
.	.	.	.	.	8ccJ	.	.
2D	4d	.	.	.	2dd	2f	4.a
.	4d	.	.	.	.	.	.
.	.	.	.	.	.	.	8b
!!LO:LB
=18	=18	=18	=18	=18	=18	=18	=18
4C	8GL	2C	Der	.	4g	8eL	8ccL
.	8FJ	.	.	.	.	8fJ	8ddJ
4C	4E	.	.	.	4cc	2g	4ee
4AA	4e	(<4.E	alt	.	2cc	.	2ee
4C	4c	.	.	.	.	4a	.
.	.	8F)	.	.	.	.	.
=19	=19	=19	=19	=19	=19	=19	=19
4r	4r	2G	.	.	4r	4r	4r
4C	4c	.	.	.	4cc	8gL	4gg
.	.	.	.	.	.	8fJ	.
4E	2c	[2A	bö	.	4cc	4e	4gg
4F	.	.	.	.	4a	4a	4ff
=20	=20	=20	=20	=20	=20	=20	=20
4D	4r	4A]	.	.	4dd	4f	4ff
4E	4B	2G	.	.	4b	4g	4ee
4C	4e	.	.	.	4cc	4e	4ee
4D	4A	4F#	se	.	4a	4f#	4dd
=21	=21	=21	=21	=21	=21	=21	=21
4BB	4r	1G	Feind	.	4b	4d	4dd
4C	4e	.	.	.	4g	8eL	4cc
.	.	.	.	.	.	8f#J	.
2GG	2d	.	.	.	2dd	2g	2b
=22	=22	=22	=22	=22	=22	=22	=22
4r	4r	2C	mit	.	4r	4r	4r
4C	4c	.	.	.	8eeL	4g	8ccL
.	.	.	.	.	8ddJ	.	8ddJ
4C	2c	2G	Ernst	.	4.cc	(<8gL	8eeL
.	.	.	.	.	.	8fJ)	8ffJ
4E	.	.	.	.	.	8eL	4gg
.	.	.	.	.	8b	8dJ	.
!!LO:LB
=23	=23	=23	=23	=23	=23	=23	=23
4F	4r	2A	er's	.	4a	4c	4.ff
4D	4d	.	.	.	8ddL	4f	.
.	.	.	.	.	8ccJ	.	8ee
4G	2G	2B	jetzt	.	4.b	4.g	2dd
4GG	.	.	.	.	.	.	.
.	.	.	.	.	8a	8f	.
=24	=24	=24	=24	=24	=24	=24	=24
2C	2G	[1c	meint.	.	2g	4.e	2ee
.	.	.	.	.	.	8f	.
4C	4G	.	.	.	4cc	4g	4ee
4C	4G	.	.	.	4cc	4g	4ee
=25	=25	=25	=25	=25	=25	=25	=25
1C	1G	1c]	.	.	1cc	1g	1ee
=26	=26	=26	=26	=26	=26	=26	=26
(<4.FF	(>4.A	1r	.	.	4.cc	2f	1ff
8GG)	8B)	.	.	.	8b	.	.
4AA	(>8cL	.	.	.	8aL	4f	.
.	8B)	.	.	.	8bJ	.	.
4FF	8A	.	.	.	4cc	4a	.
.	8BJ	.	.	.	.	.	.
=27	=27	=27	=27	=27	=27	=27	=27
4C	2c	1r	.	.	2c 2cc	4g	(>8eeL
.	.	.	.	.	.	.	8dd)
4AA	.	.	.	.	.	4c	8ee
.	.	.	.	.	.	.	8ffJ
(<8GGL	2G	.	.	.	(<8cL 8b	2d	2gg
8AA)	.	.	.	.	8c) 8cc	.	.
8BB	.	.	.	.	8d 8dd	.	.
8CJ	.	.	.	.	8eJ 8ee	.	.
!!LO:LB
=28	=28	=28	=28	=28	=28	=28	=28
!	!	!	!	!	!	!	!LO:TX:a:i:t=Ein feste Burg ist unser Gott Seite 3
4D	4r	1r	.	.	(>8f#L 8ff#	2d	2dd
.	.	.	.	.	8g) 8gg	.	.
4D	4d	.	.	.	8a 8aa	.	.
.	.	.	.	.	8f#yJ 8ff#y	.	.
4GG	8BL	.	.	.	4g 4gg	2d	(>8ddL
.	8cJ	.	.	.	.	.	8cc)
8GL	4d	.	.	.	4d 4dd	.	8b
8FJ	.	.	.	.	.	.	8aJ
=29	=29	=29	=29	=29	=29	=29	=29
(>4.E	2G	2B	Groß	.	4e 4ee	8gL	4g
.	.	.	.	.	.	8fJ	.
.	.	.	.	.	4e 4ee	4e	8ggL
8D)	.	.	.	.	.	.	8ffJ
4C	2r	2c	Macht	.	4a 4aa	2e	(>8eeL
.	.	.	.	.	.	.	8dd)
4AA	.	.	.	.	[4a [4aa	.	8cc
.	.	.	.	.	.	.	8ddJ
=30	=30	=30	=30	=30	=30	=30	=30
4E	4e	2B	und	.	4a] 4aa]	2e	2ee
4E	4e	.	.	.	4g# 4gg#	.	.
2AA	2c#	2A	viel	.	2a 2aa	2e	2ee
=31	=31	=31	=31	=31	=31	=31	=31
4r	4r	1G	List	.	4r	4r	4r
4BB	4B	.	.	.	4dd	4d	4gg
4C	2e	.	.	.	4ee	4g	4gg
4E	.	.	.	.	4cc	4e	4gg
!!LO:LB
=32	=32	=32	=32	=32	=32	=32	=32
4D	4A	2A	sein	.	4dd	4f	4ff
4C#	4e	.	.	.	4ee	4a	4ee
4D	4r	2A	grau-	.	4ff	2a	4dd
4AA	4e	.	.	.	4ee	.	4cc
=33	=33	=33	=33	=33	=33	=33	=33
4E	4e	4G	sam	.	4ee	4r	4b
8FL	4A	2A	Rü-	.	8ccL	4f	4a
8DJ	.	.	.	.	8ddJ	.	.
8AL	4r	.	.	.	(>8ccL	4e	4r
8AAJ	.	.	.	.	8aJ)	.	.
4D	4d	4F	stung	.	4a	8fL	4ff
.	.	.	.	.	.	8dJ	.
=34	=34	=34	=34	=34	=34	=34	=34
4AA	4c	1E	ist,	.	4a 4aa	1e	8ccL
.	.	.	.	.	.	.	8ddJ
4GG#	4B	.	.	.	4e 4ee	.	4ee
4AA	4A	.	.	.	4a 4aa	.	4.ee
4E	4B	.	.	.	4g# 4gg#	.	.
.	.	.	.	.	.	.	8dd
=35	=35	=35	=35	=35	=35	=35	=35
4AA	8cL	2r	.	.	4a 4aa	2e	4cc
.	8dJ	.	.	.	.	.	.
4E	4e	.	.	.	4g 4ggn	.	4b
4F	2A	2c	auf	.	4f 4ff	4r	2a
4A	.	.	.	.	8eL 8ee	4e	.
.	.	.	.	.	8ccJ	.	.
!!LO:LB
=36	=36	=36	=36	=36	=36	=36	=36
4G	1r	2B	Erd	.	4dd	2g	2b
4E	.	.	.	.	4ee	.	.
4F	.	2A	ist	.	4cc	2f	4r
4D	.	.	.	.	4dd	.	4ff
=37	=37	=37	=37	=37	=37	=37	=37
4E	4B	2G	nicht	.	4b	2e	4gg
4E	4E	.	.	.	4cc	.	4ee
(<4.D	2A	4A	seins	.	4a	(<4.d	(>4.ff
.	.	[4F	gei	.	[4dd	.	.
8C)	.	.	.	.	.	8e)	8ee)
=38	=38	=38	=38	=38	=38	=38	=38
4BB-	4r	4F]	.	.	4dd]	8fL	4dd
.	.	.	.	.	.	8dJ	.
4C	2G	4E	.	.	2cc	4g	8eeL
.	.	.	.	.	.	.	8ffJ
2GG	.	2D	.	.	.	2g	4gg
.	4G	.	.	.	4b	.	4gg
=39	=39	=39	=39	=39	=39	=39	=39
2C	2G	[1C	chen.	.	2cc	2g	2ee
4C	4c	.	.	.	4cc	4g	4ee
4C	4c	.	.	.	4cc	4g	4ee
=40	=40	=40	=40	=40	=40	=40	=40
1C	1c	1C]	.	.	1cc	1g	1ee
==	==	==	==	==	==	==	==
*-	*-	*-	*-	*-	*-	*-	*-
!!!RDF**kern: > = above
!!!RDF**kern: < = below
